modules/framework7-icons/icons/graph_round_fill.svg

<?xml version="1.0" encoding="UTF-8"?>
<svg width="50px" height="50px" viewBox="0 0 50 50" version="1.1" xmlns="http://www.w3.org/2000/svg" xmlns:xlink="http://www.w3.org/1999/xlink">
    <!-- Generator: Sketch 40.1 (33804) - http://www.bohemiancoding.com/sketch -->
    <title>graph_round_fill</title>
    <desc>Created with Sketch.</desc>
    <defs></defs>
    <g id="Page-1" stroke="none" stroke-width="1" fill="none" fill-rule="evenodd">
        <g id="graph_round_fill" fill="#000000">
            <path d="M47.6500387,14.404114 C49.1576418,17.6212572 50,21.212257 50,25 C50,38.8071187 38.8071187,50 25,50 C12.4788579,50 2.10765816,40.7950027 0.28435721,28.7829648 L0.664714069,28.9542288 L6.58894595,31.3764255 L7.21273786,31.6313597 L7.68320555,31.1488994 L11.3002865,27.4383419 L16.0338221,34.6632504 L16.8757082,35.9482413 L17.7099754,34.658291 L26.1734548,21.6452579 L35.390606,37.409042 L36.3622032,39.0707321 L37.1631812,37.3204038 L47.6500387,14.404114 Z M46.4690562,12.1831902 C42.1031626,4.88573083 34.1221431,0 25,0 C11.1928813,0 0,11.1928813 0,25 C0,25.4954337 0.0144114243,25.9875015 0.0428379346,26.4758069 L1.46186098,27.1204883 L6.72310632,29.270678 L10.7386041,25.1509132 L11.6083202,24.2590273 L12.2910155,25.3010415 L16.8820567,32.3084575 L26.2367942,17.791257 L36.1545741,34.7533028 L46.4690562,12.1831902 Z" id="Combined-Shape"></path>
        </g>
    </g>
</svg>

<svg width="50" height="50" xmlns="http://www.w3.org/2000/svg"><path d="M47.65 14.404A24.905 24.905 0 0 1 50 25c0 13.807-11.193 25-25 25C12.479 50 2.108 40.795.284 28.783l.38.171 5.925 2.422.624.255.47-.482 3.617-3.71 4.734 7.224.842 1.285.834-1.29 8.463-13.013 9.218 15.764.971 1.662.801-1.75L47.65 14.403zm-1.18-2.22C42.102 4.885 34.121 0 25 0 11.193 0 0 11.193 0 25c0 .495.014.988.043 1.476l1.419.644 5.261 2.15 4.016-4.12.87-.891.682 1.042 4.591 7.007 9.355-14.517 9.918 16.962 10.314-22.57z" fill-rule="evenodd"/></svg>
